X: 2
T: John O'Shea's March
Z: ceolachan
S: https://thesession.org/tunes/4770#setting17247
R: barndance
M: 4/4
L: 1/8
K: Dmaj
|: g/f/e |d2 FG A2 Bd | e2 ef a2 fe | dB AB d2 e2 | d6 d/e/f |
g3 a bc'/b/ ag | f2 d2 e2 fg | ag f/e/d cA B/A/^G | A6 ef |
g>d ga b2 ag | f2 d2 e2 fg | ag fd cA B^G | A>B AG A2 fe |
d2 fg a2 B/c/d | e3 f ab/a/ fe | d>B AB d2 c2 | d6 :|
